apps/symbolic/preferences-desktop-display-symbolic.svg

<svg height="24" viewBox="0 0 24 24" width="24" xmlns="http://www.w3.org/2000/svg"><path d="m19.363636 13.636363h-14.7272724v-8.1818175h14.7272724m0-1.6363637h-14.7272724c-.9081818 0-1.6363636.7281819-1.6363636 1.6363637v9.8181815a1.6363636 1.6363636 0 0 0 1.6363636 1.636364h5.7272724l-1.6363633 2.454545v.818182h6.5454543v-.818182l-1.636363-2.454545h5.727272a1.6363636 1.6363636 0 0 0 1.636364-1.636364v-9.8181815c0-.9081818-.736364-1.6363637-1.636364-1.6363637z" fill="#b3b3b3" stroke-width=".818182"/></svg>

<?xml version="1.0" encoding="UTF-8" standalone="no"?>
<svg
   xmlns:dc="http://purl.org/dc/elements/1.1/"
   xmlns:cc="http://creativecommons.org/ns#"
   xmlns:rdf="http://www.w3.org/1999/02/22-rdf-syntax-ns#"
   xmlns:svg="http://www.w3.org/2000/svg"
   xmlns="http://www.w3.org/2000/svg"
   xmlns:sodipodi="http://sodipodi.sourceforge.net/DTD/sodipodi-0.dtd"
   xmlns:inkscape="http://www.inkscape.org/namespaces/inkscape"
   version="1.1"
   width="24"
   height="24"
   viewBox="0 0 24 24"
   id="svg2"
   inkscape:version="0.92.1 r15371"
   sodipodi:docname="preferences-desktop-display-symbolic.svg">
  <metadata
     id="metadata10">
    <rdf:RDF>
      <cc:Work
         rdf:about="">
        <dc:format>image/svg+xml</dc:format>
        <dc:type
           rdf:resource="http://purl.org/dc/dcmitype/StillImage" />
      </cc:Work>
    </rdf:RDF>
  </metadata>
  <defs
     id="defs8" />
  <sodipodi:namedview
     pagecolor="#ffffff"
     bordercolor="#666666"
     borderopacity="1"
     objecttolerance="10"
     gridtolerance="10"
     guidetolerance="10"
     inkscape:pageopacity="0"
     inkscape:pageshadow="2"
     inkscape:window-width="640"
     inkscape:window-height="480"
     id="namedview6"
     showgrid="false"
     inkscape:zoom="25.291667"
     inkscape:cx="4.9621087"
     inkscape:cy="12"
     inkscape:current-layer="svg2" />
  <path
     d="M 19.363636,13.636363 H 4.6363636 V 5.4545455 H 19.363636 m 0,-1.6363637 H 4.6363636 C 3.7281818,3.8181818 3,4.5463637 3,5.4545455 v 9.8181815 a 1.6363636,1.6363636 0 0 0 1.6363636,1.636364 h 5.7272724 l -1.6363633,2.454545 v 0.818182 h 6.5454543 v -0.818182 l -1.636363,-2.454545 h 5.727272 A 1.6363636,1.6363636 0 0 0 21,15.272727 V 5.4545455 C 21,4.5463637 20.263636,3.8181818 19.363636,3.8181818 Z"
     id="path4"
     style="fill:#b3b3b3;fill-opacity:1;stroke-width:0.81818181"
     inkscape:connector-curvature="0" />
</svg>
